X: 155
T: No_88_I_Run_Toward_the_East.krn
N: Derived from No_88_I_Run_Toward_the_East.krn
%%abc-version 2.0
%%abcx-abcm2ps-target-version 5.9.1 (29 Sep 2008)
%%abc-creator hum2abc beta
%%abcx-conversion-date 2019/03/15 08:37:56
%%humdrum-veritas 513033177
%%humdrum-veritas-data 3722513084
%%linebreak <none>
%%barnumbers 0
L: 1/8
M: 2/4
K: B clef=bass
F,F, [I:setbarnb 1]| 
CCC2 | 
C2G,2 ||  
[M:3/4]B,B, G,F, F,F, ||  
[M:2/4]F,4 | 
F,F,F,2 | 
F,2C,2 | 
F,F, F, z ]|:  
[M:3/4]B,4B,G, | 
F,2F,2C,2 | 
F,F,F,2C,2 | 
G,F, F,F, F,F, ||  
[M:2/4]F,4 | 
F,F,F,2 | 
F,2C,2 | 
F,F, F, z :|]  



